communes/5135.svg

<?xml version="1.0" encoding="UTF-8" standalone="no"?>
<svg
   xmlns:dc="http://purl.org/dc/elements/1.1/"
   xmlns:cc="http://creativecommons.org/ns#"
   xmlns:rdf="http://www.w3.org/1999/02/22-rdf-syntax-ns#"
   xmlns:svg="http://www.w3.org/2000/svg"
   xmlns="http://www.w3.org/2000/svg"
   xmlns:xlink="http://www.w3.org/1999/xlink"
   xmlns:sodipodi="http://sodipodi.sourceforge.net/DTD/sodipodi-0.dtd"
   xmlns:inkscape="http://www.inkscape.org/namespaces/inkscape"
   height="763"
   width="603"
   version="1.0"
   id="svg20"
   sodipodi:version="0.32"
   inkscape:version="0.46"
   sodipodi:docname="Vogorno-coat_of_arms.svg"
   sodipodi:docbase="C:\Documents and Settings\Steve\Bureau\Blason Villages Suisse pour Wikipédia (par Delta-9)"
   inkscape:output_extension="org.inkscape.output.svg.inkscape">
  <metadata
     id="metadata31">
    <rdf:RDF>
      <cc:Work
         rdf:about="">
        <dc:format>image/svg+xml</dc:format>
        <dc:type
           rdf:resource="http://purl.org/dc/dcmitype/StillImage" />
        <dc:date>07-AUG-2006</dc:date>
        <dc:creator>
          <cc:Agent>
            <dc:title>Jérôme BLUM (wagner51)</dc:title>
          </cc:Agent>
        </dc:creator>
        <cc:license
           rdf:resource="http://creativecommons.org/licenses/GPL/2.0/" />
        <dc:coverage />
        <dc:description>Gabarit pour le Projet:Blasons de WIkipédia</dc:description>
        <dc:subject>
          <rdf:Bag>
            <rdf:li>blason suisse modèle gabarit projet blasons</rdf:li>
          </rdf:Bag>
        </dc:subject>
        <dc:language>fr</dc:language>
        <dc:title>Gabrit d'un blason suisse</dc:title>
      </cc:Work>
      <cc:License
         rdf:about="http://creativecommons.org/licenses/GPL/2.0/">
        <cc:permits
           rdf:resource="http://web.resource.org/cc/Reproduction" />
        <cc:permits
           rdf:resource="http://web.resource.org/cc/Distribution" />
        <cc:requires
           rdf:resource="http://web.resource.org/cc/Notice" />
        <cc:permits
           rdf:resource="http://web.resource.org/cc/DerivativeWorks" />
        <cc:requires
           rdf:resource="http://web.resource.org/cc/ShareAlike" />
        <cc:requires
           rdf:resource="http://web.resource.org/cc/SourceCode" />
      </cc:License>
    </rdf:RDF>
  </metadata>
  <defs
     id="defs29"><inkscape:perspective
   sodipodi:type="inkscape:persp3d"
   inkscape:vp_x="0 : 381.5 : 1"
   inkscape:vp_y="0 : 1000 : 0"
   inkscape:vp_z="603 : 381.5 : 1"
   inkscape:persp3d-origin="301.5 : 254.33333 : 1"
   id="perspective28" />
<linearGradient
   id="linearGradient2893">
  <stop
     style="stop-color:#ffffff;stop-opacity:0.3137255;"
     offset="0"
     id="stop2895" />
  <stop
     id="stop2897"
     offset="0.19"
     style="stop-color:#ffffff;stop-opacity:0.25098041;" />
  <stop
     style="stop-color:#6b6b6b;stop-opacity:0.1254902;"
     offset="0.60000002"
     id="stop2901" />
  <stop
     style="stop-color:#000000;stop-opacity:0.1254902;"
     offset="1"
     id="stop2899" />
</linearGradient>
<linearGradient
   id="linearGradient2955">
  <stop
     style="stop-color:white;stop-opacity:0;"
     offset="0"
     id="stop2965" />
  <stop
     style="stop-color:black;stop-opacity:0.64583331;"
     offset="1"
     id="stop2959" />
</linearGradient>
<radialGradient
   inkscape:collect="always"
   xlink:href="#linearGradient2893"
   id="radialGradient3236"
   gradientUnits="userSpaceOnUse"
   gradientTransform="matrix(1.215027,1.531577e-24,1.464684e-23,1.266667,-839.1924,-490.4894)"
   cx="858.04236"
   cy="579.93323"
   fx="858.04236"
   fy="579.93323"
   r="300" />
<inkscape:perspective
   id="perspective3265"
   inkscape:persp3d-origin="306 : 264 : 1"
   inkscape:vp_z="612 : 396 : 1"
   inkscape:vp_y="0 : 1000 : 0"
   inkscape:vp_x="0 : 396 : 1"
   sodipodi:type="inkscape:persp3d" />

	
	
	

	
	

		
			
		
			
		
			
		
			
		
			
		
			
		
	</defs>
  <sodipodi:namedview
     inkscape:window-height="880"
     inkscape:window-width="1207"
     inkscape:pageshadow="2"
     inkscape:pageopacity="0.0"
     guidetolerance="10.0"
     gridtolerance="10.0"
     objecttolerance="10.0"
     borderopacity="1.0"
     bordercolor="#666666"
     pagecolor="#ffffff"
     id="base"
     inkscape:zoom="0.8600464"
     inkscape:cx="271.91333"
     inkscape:cy="412.30077"
     inkscape:window-x="1304"
     inkscape:window-y="45"
     inkscape:current-layer="layer2"
     showgrid="false"
     showguides="true"
     inkscape:guide-bbox="true">
    <sodipodi:guide
       orientation="horizontal"
       position="761.5"
       id="guide1885" />
    <sodipodi:guide
       orientation="vertical"
       position="1.5"
       id="guide1887" />
    <sodipodi:guide
       orientation="horizontal"
       position="1.5"
       id="guide1889" />
    <sodipodi:guide
       orientation="vertical"
       position="601.5"
       id="guide1891" />
    <sodipodi:guide
       orientation="vertical"
       position="301.50081"
       id="guide1893" />
  </sodipodi:namedview>
  <desc
     id="desc22">Coat of Arms of Canton of Freiburg (Fribourg)</desc>
  <g
     inkscape:groupmode="layer"
     id="layer1"
     inkscape:label="Fond écu"
     style="opacity:1"
     sodipodi:insensitive="true">
    <path
       id="path1899"
       d="M 1.5,1.49998 L 1.5,460.3679 C 1.5,626.6785 135.81456,761.5 301.49999,761.5 C 467.18543,761.5 601.5,626.6785 601.5,460.3679 L 601.5,1.49998 L 1.5,1.49998 z"
       style="fill:#ffffff;fill-opacity:1" />
    <path
       id="path3242"
       d="M 1.4999979,251.18801 L 1.4999979,460.36801 C 1.4999979,626.679 135.814,761.5 301.5,761.5 C 467.186,761.5 601.5,626.679 601.5,460.36801 L 601.5,251.18801 L 1.4999979,251.18801 z"
       style="opacity:1;fill:#2b5df2" />
  </g>
  <g
     inkscape:groupmode="layer"
     id="layer2"
     inkscape:label="Meubles"
     style="opacity:1"
     sodipodi:insensitive="true">
    <polygon
       style="fill:#fcef3c;stroke:#000000;stroke-width:2.75;stroke-linecap:round;stroke-linejoin:round"
       id="polygon1963_18_"
       points="177.431,615.16 203.878,585.874 165.293,594.137 153.156,556.59 141.019,594.137 102.433,585.874 128.881,615.16 102.433,644.444 141.019,636.183 153.156,673.73 165.293,636.183 203.878,644.444 177.431,615.16 "
       transform="translate(-2.078125e-6,0)" />
    <polygon
       style="fill:#fcef3c;stroke:#000000;stroke-width:2.75;stroke-linecap:round;stroke-linejoin:round"
       id="polygon1963_20_"
       points="399.122,644.444 437.707,636.183 449.844,673.73 461.981,636.183 500.566,644.444 474.119,615.16 500.566,585.874 461.981,594.137 449.844,556.59 437.707,594.137 399.122,585.874 425.569,615.16 399.122,644.444 "
       transform="translate(-2.078125e-6,0)" />
    <polygon
       style="fill:#fcef3c;stroke:#000000;stroke-width:2.75;stroke-linecap:round;stroke-linejoin:round"
       id="polygon1963_2_"
       points="103.258,342.5 129.706,313.215 91.121,321.478 78.983,283.93 66.846,321.478 28.26,313.215 54.708,342.5 28.26,371.785 66.846,363.523 78.983,401.07 91.121,363.522 129.706,371.785 103.258,342.5 "
       transform="translate(-2.078125e-6,0)" />
    <polygon
       style="fill:#fcef3c;stroke:#000000;stroke-width:2.75;stroke-linecap:round;stroke-linejoin:round"
       id="polygon1963_10_"
       points="251.603,342.5 278.05,313.215 239.465,321.478 227.328,283.93 215.19,321.478 176.605,313.215 203.053,342.5 176.605,371.785 215.19,363.523 227.328,401.07 239.465,363.522 278.05,371.785 251.603,342.5 "
       transform="translate(-2.078125e-6,0)" />
    <polygon
       style="fill:#fcef3c;stroke:#000000;stroke-width:2.75;stroke-linecap:round;stroke-linejoin:round"
       id="polygon1963_16_"
       points="473.294,371.785 511.879,363.522 524.017,401.07 536.154,363.523 574.739,371.785 548.292,342.5 574.739,313.215 536.154,321.478 524.017,283.93 511.879,321.478 473.294,313.215 499.741,342.5 473.294,371.785 "
       transform="translate(-2.078125e-6,0)" />
    <polygon
       style="fill:#fcef3c;stroke:#000000;stroke-width:2.75;stroke-linecap:round;stroke-linejoin:round"
       id="polygon1963_15_"
       points="324.949,371.785 363.535,363.522 375.672,401.07 387.81,363.523 426.396,371.785 399.946,342.5 426.396,313.215 387.81,321.478 375.672,283.93 363.535,321.478 324.949,313.215 351.397,342.5 324.949,371.785 "
       transform="translate(-2.078125e-6,0)" />
    <path
       style="fill:#ffffff;stroke:#000000;stroke-width:2.75;stroke-linecap:round;stroke-linejoin:round"
       d="M 449.844,430.23501 L 153.156,430.23501 L 153.156,532.39099 C 153.156,532.39099 211.206,499.371 271.693,490.04001 C 270.18,618.26499 243.775,673.729 243.775,673.729 L 359.225,673.729 C 359.225,673.729 332.821,618.264 331.308,490.04001 C 391.794,499.371 449.844,532.39099 449.844,532.39099 L 449.844,430.23501 z"
       id="path3254" />
    <line
       id="line3256"
       y2="251.188"
       x2="601.5"
       y1="251.188"
       x1="1.4999981"
       style="fill:none;stroke:#000000;stroke-width:3" />
    <path
       id="path3258"
       d="M 317.089,139.24001 C 368.107,143.77501 394.75,163.61501 394.75,163.61501 L 394.75,88.789 C 394.75,88.789 368.106,108.629 317.089,113.164 L 314.538,113.164 L 314.538,110.755 C 319.073,59.736 338.913,33.094 338.913,33.094 L 264.086,33.094 C 264.086,33.094 283.927,59.737 288.461,110.755 L 288.461,113.164 L 285.91,113.164 C 234.891,108.629 208.249,88.789 208.249,88.789 L 208.249,163.616 C 208.249,163.616 234.892,143.77501 285.91,139.24101 L 288.461,139.24101 L 288.461,141.933 C 283.926,192.951 264.086,219.59401 264.086,219.59401 L 338.913,219.59401 C 338.913,219.59401 319.073,192.951 314.538,141.933 L 314.538,139.24101 L 317.089,139.24101 L 317.089,139.24001 z"
       style="fill:#e20909;stroke:#000000;stroke-width:3" />
  </g>
  <g
     inkscape:groupmode="layer"
     id="layer3"
     inkscape:label="Reflet final"
     style="display:inline"
     sodipodi:insensitive="true">
    <path
       style="fill:url(#radialGradient3236);fill-opacity:1"
       d="M 1.5,1.5 L 1.5,460.3679 C 1.5,626.67854 135.81454,761.5 301.49993,761.5 C 467.1854,761.5 601.5,626.67854 601.5,460.3679 L 601.5,1.5 L 1.5,1.5 z "
       id="path2346" />
  </g>
  <g
     inkscape:groupmode="layer"
     id="layer4"
     inkscape:label="Contour final"
     style="display:inline"
     sodipodi:insensitive="true">
    <path
       style="fill:none;fill-opacity:1;stroke:#000000;stroke-width:3;stroke-miterlimit:4;stroke-dasharray:none;stroke-opacity:1"
       d="M 1.5,1.5 L 1.5,460.36794 C 1.5,626.67854 135.81454,761.5 301.49993,761.5 C 467.1854,761.5 601.5,626.67854 601.5,460.36794 L 601.5,1.5 L 1.5,1.5 z "
       id="path3239" />
  </g>
</svg>

<?xml version="1.0" encoding="UTF-8"?>
<svg version="1.0" viewBox="0 0 603 763" xmlns="http://www.w3.org/2000/svg" xmlns:cc="http://creativecommons.org/ns#" xmlns:dc="http://purl.org/dc/elements/1.1/" xmlns:rdf="http://www.w3.org/1999/02/22-rdf-syntax-ns#" xmlns:xlink="http://www.w3.org/1999/xlink">
<metadata>
<rdf:RDF>
<cc:Work rdf:about="">
<dc:format>image/svg+xml</dc:format>
<dc:type rdf:resource="http://purl.org/dc/dcmitype/StillImage"/>
<dc:date>07-AUG-2006</dc:date>
<dc:creator>
<cc:Agent>
<dc:title>Jérôme BLUM (wagner51)</dc:title>
</cc:Agent>
</dc:creator>
<cc:license rdf:resource="http://creativecommons.org/licenses/GPL/2.0/"/>
<dc:coverage/>
<dc:description>Gabarit pour le Projet:Blasons de WIkipédia</dc:description>
<dc:subject>
<rdf:Bag>
<rdf:li>blason suisse modèle gabarit projet blasons</rdf:li>
</rdf:Bag>
</dc:subject>
<dc:language>fr</dc:language>
<dc:title>Gabrit d'un blason suisse</dc:title>
</cc:Work>
<cc:License rdf:about="http://creativecommons.org/licenses/GPL/2.0/">
<cc:permits rdf:resource="http://web.resource.org/cc/Reproduction"/>
<cc:permits rdf:resource="http://web.resource.org/cc/Distribution"/>
<cc:requires rdf:resource="http://web.resource.org/cc/Notice"/>
<cc:permits rdf:resource="http://web.resource.org/cc/DerivativeWorks"/>
<cc:requires rdf:resource="http://web.resource.org/cc/ShareAlike"/>
<cc:requires rdf:resource="http://web.resource.org/cc/SourceCode"/>
</cc:License>
</rdf:RDF>
</metadata>
<defs>
<radialGradient id="a" cx="858.04" cy="579.93" r="300" gradientTransform="matrix(1.215 1.5316e-24 1.4647e-23 1.2667 -839.19 -490.49)" gradientUnits="userSpaceOnUse">
<stop stop-color="#fff" stop-opacity=".31373" offset="0"/>
<stop stop-color="#fff" stop-opacity=".25098" offset=".19"/>
<stop stop-color="#6b6b6b" stop-opacity=".12549" offset=".6"/>
<stop stop-opacity=".12549" offset="1"/>
</radialGradient>
</defs>
<desc>Coat of Arms of Canton of Freiburg (Fribourg)</desc>
<g>
<path d="m1.5 1.5v458.87c0 166.31 134.31 301.13 300 301.13 165.69 0 300-134.82 300-301.13v-458.87h-600z" fill="#fff"/>
<path d="m1.5 251.19v209.18c0 166.31 134.31 301.13 300 301.13s300-134.82 300-301.13v-209.18h-600z" fill="#2b5df2"/>
<polygon transform="translate(-2.0781e-6)" points="177.43 615.16 203.88 585.87 165.29 594.14 153.16 556.59 141.02 594.14 102.43 585.87 128.88 615.16 102.43 644.44 141.02 636.18 153.16 673.73 165.29 636.18 203.88 644.44" fill="#fcef3c" stroke="#000" stroke-linecap="round" stroke-linejoin="round" stroke-width="2.75"/>
<polygon transform="translate(-2.0781e-6)" points="399.12 644.44 437.71 636.18 449.84 673.73 461.98 636.18 500.57 644.44 474.12 615.16 500.57 585.87 461.98 594.14 449.84 556.59 437.71 594.14 399.12 585.87 425.57 615.16" fill="#fcef3c" stroke="#000" stroke-linecap="round" stroke-linejoin="round" stroke-width="2.75"/>
<polygon transform="translate(-2.0781e-6)" points="103.26 342.5 129.71 313.22 91.121 321.48 78.983 283.93 66.846 321.48 28.26 313.22 54.708 342.5 28.26 371.78 66.846 363.52 78.983 401.07 91.121 363.52 129.71 371.78" fill="#fcef3c" stroke="#000" stroke-linecap="round" stroke-linejoin="round" stroke-width="2.75"/>
<polygon transform="translate(-2.0781e-6)" points="251.6 342.5 278.05 313.22 239.46 321.48 227.33 283.93 215.19 321.48 176.6 313.22 203.05 342.5 176.6 371.78 215.19 363.52 227.33 401.07 239.46 363.52 278.05 371.78" fill="#fcef3c" stroke="#000" stroke-linecap="round" stroke-linejoin="round" stroke-width="2.75"/>
<polygon transform="translate(-2.0781e-6)" points="473.29 371.78 511.88 363.52 524.02 401.07 536.15 363.52 574.74 371.78 548.29 342.5 574.74 313.22 536.15 321.48 524.02 283.93 511.88 321.48 473.29 313.22 499.74 342.5" fill="#fcef3c" stroke="#000" stroke-linecap="round" stroke-linejoin="round" stroke-width="2.75"/>
<polygon transform="translate(-2.0781e-6)" points="324.95 371.78 363.54 363.52 375.67 401.07 387.81 363.52 426.4 371.78 399.95 342.5 426.4 313.22 387.81 321.48 375.67 283.93 363.54 321.48 324.95 313.22 351.4 342.5" fill="#fcef3c" stroke="#000" stroke-linecap="round" stroke-linejoin="round" stroke-width="2.75"/>
<path d="m449.84 430.24h-296.69v102.16s58.05-33.02 118.54-42.351c-1.513 128.22-27.918 183.69-27.918 183.69h115.45s-26.404-55.465-27.917-183.69c60.486 9.331 118.54 42.351 118.54 42.351v-102.16z" fill="#fff" stroke="#000" stroke-linecap="round" stroke-linejoin="round" stroke-width="2.75"/>
<line x1="1.5" x2="601.5" y1="251.19" y2="251.19" fill="none" stroke="#000" stroke-width="3"/>
<path d="m317.09 139.24c51.018 4.535 77.661 24.375 77.661 24.375v-74.826s-26.644 19.84-77.661 24.375h-2.551v-2.409c4.535-51.019 24.375-77.661 24.375-77.661h-74.827s19.841 26.643 24.375 77.661v2.409h-2.551c-51.019-4.535-77.661-24.375-77.661-24.375v74.827s26.643-19.841 77.661-24.375h2.551v2.692c-4.535 51.018-24.375 77.661-24.375 77.661h74.827s-19.84-26.643-24.375-77.661v-2.692h2.551v-1e-3z" fill="#e20909" stroke="#000" stroke-width="3"/>
</g>
<g>
<path d="m1.5 1.5v458.87c0 166.31 134.31 301.13 300 301.13 165.69 0 300-134.82 300-301.13v-458.87h-600z" fill="url(#a)"/>
<path d="m1.5 1.5v458.87c0 166.31 134.31 301.13 300 301.13 165.69 0 300-134.82 300-301.13v-458.87h-600z" fill="none" stroke="#000" stroke-width="3"/>
</g>
</svg>
